icons/cloud/cloud.svg

<svg width="14" height="14" viewBox="0 0 14 14" fill="none" xmlns="http://www.w3.org/2000/svg">
<path d="M5.3333 7.49677V6.65483C5.3333 5.71218 5.76179 4.82063 6.49788 4.23176V4.23176C7.73255 3.24403 9.51247 3.34261 10.6305 4.46065L10.9642 4.79431C11.9809 5.811 12.2329 7.3642 11.5899 8.65022V8.65022C11.0241 9.78191 9.86739 10.4968 8.60214 10.4968H6.66663H3.7365C3.06808 10.4968 2.44387 10.1628 2.07298 9.60671C1.62507 8.93515 1.62505 8.05987 2.07267 7.38812C2.44365 6.8314 3.0685 6.49677 3.7375 6.49677H5.3333" stroke="red" stroke-linecap="round" stroke-linejoin="round"/>
</svg>

<svg xmlns="http://www.w3.org/2000/svg" width="14" height="14" fill="none" viewBox="0 0 14 14"><path stroke="red" stroke-linecap="round" stroke-linejoin="round" d="M5.333 7.497v-.842c0-.943.429-1.834 1.165-2.423v0a3.103 3.103 0 0 1 4.132.229l.334.333a3.34 3.34 0 0 1 .626 3.856v0a3.34 3.34 0 0 1-2.988 1.847H3.737a2 2 0 1 1 0-4h1.596"/></svg>
